X:30
T: Waltzing Armadillo
C: BB
N: revised 11/4/03
R: jig
Q: 1/8=330
M: 6/8
L: 1/8
K: G
A | "G"Bcd gdd | "G"BGF G2 A | "Em"Bcd eBA | "Em"GED E2 A |
"G"Bcd "Em"ede | "D"fdf "G"gab | "Am"age "D"fdA | "G"BGF G2 :|
A|"G"BAG "Em"EBB|"D"DEF "G"G2 A | "G"Bcd "Em"ged | "G"BAG "D"A2 A |
"G"BAG DBD | "Am"ecA "G"GBd | "G"bag "Am"ecA | "G"BGF "G"G2 :|
e |"D"fdf "D7"fdf | "G"gba gfe | "D"fdf "D7"fdA | "G"BGF G2 e |
"D"fdf "C"ece | "G"dBd "Em"efg | "G"bag "Am"ecA |"G"BGF "G"G2 :|
